icons/circle/48/kicad.svg

<?xml version="1.0" encoding="UTF-8" standalone="no"?>
<svg id="svg2" xmlns:rdf="http://www.w3.org/1999/02/22-rdf-syntax-ns#" xmlns="http://www.w3.org/2000/svg" height="100%" width="100%" version="1.1" xmlns:cc="http://creativecommons.org/ns#" xmlns:xlink="http://www.w3.org/1999/xlink" viewBox="0 0 48 48" xmlns:dc="http://purl.org/dc/elements/1.1/">
 <metadata id="metadata67">
  <rdf:RDF>
   <cc:Work rdf:about="">
    <dc:format>image/svg+xml</dc:format>
    <dc:type rdf:resource="http://purl.org/dc/dcmitype/StillImage"/>
    <dc:title/>
   </cc:Work>
  </rdf:RDF>
 </metadata>
 <defs id="defs4">
  <linearGradient id="linearGradient3804" y2="4.201" gradientUnits="userSpaceOnUse" x2="22.782" y1="38.592" x1="22.782">
   <stop id="stop3790" style="stop-color:#dfcdcd" offset="0"/>
   <stop id="stop3792" style="stop-color:#e6dada" offset="1"/>
  </linearGradient>
  <linearGradient id="linearGradient3009" y2=".99789" gradientUnits="userSpaceOnUse" x2="1.0003" y1="46.996" x1="1.0003">
   <stop id="stop3781" style="stop-color:#3161b0" offset="0"/>
   <stop id="stop3783" style="stop-color:#3569bf" offset="1"/>
  </linearGradient>
 </defs>
 <g id="g21">
  <path id="path23" style="opacity:.05" d="m36.31 5c5.859 4.062 9.688 10.831 9.688 18.5 0 12.426-10.07 22.5-22.5 22.5-7.669 0-14.438-3.828-18.5-9.688 1.037 1.822 2.306 3.499 3.781 4.969 4.085 3.712 9.514 5.969 15.469 5.969 12.703 0 23-10.298 23-23 0-5.954-2.256-11.384-5.969-15.469-1.469-1.475-3.147-2.744-4.969-3.781zm4.969 3.781c3.854 4.113 6.219 9.637 6.219 15.719 0 12.703-10.297 23-23 23-6.081 0-11.606-2.364-15.719-6.219 4.16 4.144 9.883 6.719 16.219 6.719 12.703 0 23-10.298 23-23 0-6.335-2.575-12.06-6.719-16.219z"/>
  <path id="path25" style="opacity:.1" d="m41.28 8.781c3.712 4.085 5.969 9.514 5.969 15.469 0 12.703-10.297 23-23 23-5.954 0-11.384-2.256-15.469-5.969 4.113 3.854 9.637 6.219 15.719 6.219 12.703 0 23-10.298 23-23 0-6.081-2.364-11.606-6.219-15.719z"/>
  <path id="path27" style="opacity:.2" d="m31.25 2.375c8.615 3.154 14.75 11.417 14.75 21.13 0 12.426-10.07 22.5-22.5 22.5-9.708 0-17.971-6.135-21.12-14.75a23 23 0 0 0 44.875 -7 23 23 0 0 0 -16 -21.875z"/>
 </g>
 <g id="g29" style="fill:url(#linearGradient3804)">
  <path id="path31" style="fill:url(#linearGradient3009)" d="m24 1c12.703 0 23 10.297 23 23s-10.297 23-23 23-23-10.297-23-23 10.297-23 23-23z"/>
  <path id="path3166" style="opacity:.1;fill:#000" d="m14 15v20h5v-5.3398l1.834-2.8613 3.064 8.201h5.538l-5.538-12.432 5.299-7.568h-5.972l-4.225 6.32v-6.32h-5zm19 0a2 2 0 0 0 -2 2 2 2 0 0 0 2 2 2 2 0 0 0 2 -2 2 2 0 0 0 -2 -2zm-2 6v14h4v-14h-4z"/>
  <path id="path13245" style="fill:#fff" d="m13 14h5v6.3203l4.2247-6.3203h5.972l-5.2974 7.5677 5.5354 12.432h-5.5355l-3.0654-8.2016-1.8339 2.862v5.3397h-5z"/>
  <path id="path13247" style="fill:#fff" d="m30 20h4v14h-4z"/>
  <circle id="path13194-3-7" r="2" cy="16" cx="32" style="fill:#f70"/>
 </g>
 <g id="g61">
  <path id="path63" style="opacity:.1" d="m40.03 7.531c3.712 4.084 5.969 9.514 5.969 15.469 0 12.703-10.297 23-23 23-5.954 0-11.384-2.256-15.469-5.969 4.178 4.291 10.01 6.969 16.469 6.969 12.703 0 23-10.298 23-23 0-6.462-2.677-12.291-6.969-16.469z"/>
 </g>
</svg>

<svg xmlns="http://www.w3.org/2000/svg" viewBox="0 0 48 48">
  <defs>
    <linearGradient id="a" y2="4.201" gradientUnits="userSpaceOnUse" x2="22.782" y1="38.592" x1="22.782">
      <stop offset="0" stop-color="#dfcdcd"/>
      <stop offset="1" stop-color="#e6dada"/>
    </linearGradient>
    <linearGradient id="b" y2=".998" gradientUnits="userSpaceOnUse" x2="1" y1="46.996" x1="1">
      <stop offset="0" stop-color="#3161b0"/>
      <stop offset="1" stop-color="#3569bf"/>
    </linearGradient>
  </defs>
  <path d="M36.31 5c5.859 4.062 9.688 10.831 9.688 18.5 0 12.426-10.07 22.5-22.5 22.5-7.669 0-14.438-3.828-18.5-9.688a23.24 23.24 0 0 0 3.781 4.969 22.923 22.923 0 0 0 15.469 5.969c12.703 0 23-10.298 23-23a22.92 22.92 0 0 0-5.969-15.469A23.216 23.216 0 0 0 36.31 5zm4.969 3.781A22.911 22.911 0 0 1 47.498 24.5c0 12.703-10.297 23-23 23a22.909 22.909 0 0 1-15.719-6.219C12.939 45.425 18.662 48 24.998 48c12.703 0 23-10.298 23-23 0-6.335-2.575-12.06-6.719-16.219z" opacity=".05"/>
  <path d="M41.28 8.781a22.923 22.923 0 0 1 5.969 15.469c0 12.703-10.297 23-23 23A22.92 22.92 0 0 1 8.78 41.281 22.911 22.911 0 0 0 24.499 47.5c12.703 0 23-10.298 23-23A22.909 22.909 0 0 0 41.28 8.781z" opacity=".1"/>
  <path d="M31.25 2.375C39.865 5.529 46 13.792 46 23.505c0 12.426-10.07 22.5-22.5 22.5-9.708 0-17.971-6.135-21.12-14.75a23 23 0 0 0 44.875-7 23 23 0 0 0-16-21.875z" opacity=".2"/>
  <g fill="url(#a)">
    <path d="M24 1c12.703 0 23 10.297 23 23S36.703 47 24 47 1 36.703 1 24 11.297 1 24 1z" fill="url(#b)"/>
    <path d="M14 15v20h5v-5.34l1.834-2.861 3.064 8.2h5.538l-5.538-12.431L29.197 15h-5.972L19 21.32V15h-5zm19 0a2 2 0 0 0-2 2 2 2 0 0 0 2 2 2 2 0 0 0 2-2 2 2 0 0 0-2-2zm-2 6v14h4V21h-4z" opacity=".1" fill="#000"/>
    <path d="M13 14h5v6.32L22.225 14h5.972l-5.298 7.568L28.435 34h-5.536l-3.065-8.202L18 28.66V34h-5zM30 20h4v14h-4z" fill="#fff"/>
    <circle r="2" cy="16" cx="32" fill="#f70"/>
  </g>
  <g>
    <path d="M40.03 7.531A22.922 22.922 0 0 1 45.999 23c0 12.703-10.297 23-23 23A22.92 22.92 0 0 1 7.53 40.031C11.708 44.322 17.54 47 23.999 47c12.703 0 23-10.298 23-23 0-6.462-2.677-12.291-6.969-16.469z" opacity=".1"/>
  </g>
</svg>
